X:37
T:Drowsy Maggie (version)
C:Reel
H:Dermot Diamond
H:Reel from Tommy Peoples. The first part is played to finish.
M:4/4
K:D
~B2ef efge | fefg afdf | ~g2bg fa{b}af | egfd edAB |\
~B2ef efge | fefg afdf | ~g2bg fa{b}af | edfe dBAF ||\
E2{d}BA BAGF | ~E3G FDDF | EB~B2 {d}BABd | egfe dBAF |\
~E3B {d}BAGF | EB,EG FDDF | EB~B2 {d}BABd | egfd Beef ||\
eB~B2 efge | +d2D2+ fg afdf | gfge fdad | eafd edAB |\
~B2ef efge | fefg afdf | ~g2bg fa{b}af | edfe dBAF ||\
~E3A B2GF | EDEG FDDF | EB~B2 {d}BABd | egfe dBAF |\
~E3B {d}BAGF | EB,EG FDDF | EB~B2 {d}BABd | egfd Beef ||
